X: 1
T: Trip To Larry Gavin's
R: reel
M: 4/4
L: 1/8
K: Amaj
|:ecdB Ffed|(3cBA BG AGEF|GABA GedG|ABcf e2 (3dcB|
ABcA FD (3DCD|B,CDB, EB,EF|GABG eBGE|DB,EB, CA,A,2:|
|:(3efe cA (3efe cA|(3ded BG (3ded BG|cAdB ecdc|BAGF EA,CE|
FAdc BAGF|EAce defg|aged BcdB|ec (3dcB cAA2:|

composer: Richard Dwyer
